X:161
T:Dwy Bleth o'i Gwallt Melyngoch
M:6/8
L:1/8
Q:120
C:Trad.
R:Jig
K:D
GF | E2 E G2 B | A F2 FGF | E2 E
G2 A | B3- B2 E | B2 B BAG | A
B2 B2 c | d2 B G2 E | F3- F>GF
| E2 E E>D=c | B3 B>GA | B2 B AGF | E3-
E ||
